icons/neo4j/neo4j-plain.svg

<svg width="128" height="128" viewBox="0 0 128 128" fill="none" xmlns="http://www.w3.org/2000/svg">
<path d="M63.3333 32.5667C58.1333 33.4333 53.7667 35.5667 50.5 38.8333C46.6333 42.7 44.6667 47.3333 44 54.2C43.7 57.3333 43.5333 69.6667 43.8 69.6667C43.8667 69.6667 44.5 69.4333 45.2 69.1333C46.8333 68.4333 50.3667 68.4333 52.2 69.1L53.6 69.6L53.7667 61.5667C53.9333 53 54.1333 51.7 55.7333 48.5C56.8333 46.3667 59.5 43.8667 61.7667 42.8333C64.3667 41.6333 68.1667 41.1667 71.1 41.6333C77.3667 42.6667 81.1 46.0667 82.6667 52.1333C83.3 54.5667 83.3333 55.8333 83.3333 69.2333V83.6667H88.3667H93.4L93.2333 67.9C93.1333 53 93.0667 52 92.3667 49.3333C90.4667 41.9333 85.8667 36.5667 79.4333 34.1333C76 32.8333 72.7333 32.3333 68.2333 32.3667C66 32.4 63.8 32.5 63.3333 32.5667Z" fill="black"/>
<path d="M22.7333 57.2C19.8667 58.6333 18.3333 61.2 18.3333 64.6667C18.3333 65.7667 18.5333 67.1667 18.8 67.8C19.4333 69.3667 21.2333 71.2667 22.8 72.1C24.7 73.1 28.3 73.1 30.1667 72.1333L31.5333 71.4333L35.8 74.3333L40.0667 77.2667V79.4667V81.7L35.8 84.6333L31.5 87.5667L30.4 86.9C28.8 85.9667 25.7 85.7667 23.8 86.5C21.8 87.2667 19.7333 89.1 18.9667 90.8333C18.1333 92.6 18.1333 96.0667 18.9667 97.8333C19.6667 99.4 21.3 101.133 22.7667 101.9C23.3667 102.2 24.8 102.5 26 102.6C28.8 102.8 31.1667 101.867 32.8667 99.8667C34.2333 98.2667 35.1333 95.4667 34.9 93.5333L34.7333 92.1667L39.0333 89.2667L43.3333 86.3667L44.8667 87.0667C47.2 88.0667 50.6667 87.8333 52.8667 86.5C55.2667 85 56.4667 82.8667 56.6 79.8667C56.7 77.7667 56.6 77.3 55.7667 75.6667C53.6 71.5333 48.7667 69.9667 44.6333 72.0333L43.4 72.6333L39.1667 69.7333L34.9333 66.8333L34.8333 64.5C34.7667 61.7 33.9667 59.9 32 58.2667C29.5 56.1333 25.7667 55.7 22.7333 57.2Z" fill="black"/>
</svg>

<svg viewBox="0 0 128 128" fill="none" xmlns="http://www.w3.org/2000/svg"><path d="M63.333 32.567c-5.2.866-9.566 3-12.833 6.266-3.867 3.867-5.833 8.5-6.5 15.367-.3 3.133-.467 15.467-.2 15.467.067 0 .7-.234 1.4-.534 1.633-.7 5.167-.7 7-.033l1.4.5.167-8.033c.166-8.567.366-9.867 1.966-13.067 1.1-2.133 3.767-4.633 6.034-5.667 2.6-1.2 6.4-1.666 9.333-1.2 6.267 1.034 10 4.434 11.567 10.5.633 2.434.666 3.7.666 17.1v14.434H93.4L93.233 67.9c-.1-14.9-.166-15.9-.866-18.567-1.9-7.4-6.5-12.766-12.934-15.2-3.433-1.3-6.7-1.8-11.2-1.766-2.233.033-4.433.133-4.9.2z" fill="#000"/><path d="M22.733 57.2c-2.866 1.433-4.4 4-4.4 7.467 0 1.1.2 2.5.467 3.133.633 1.567 2.433 3.467 4 4.3 1.9 1 5.5 1 7.367.033l1.366-.7 4.267 2.9 4.267 2.934V81.7L35.8 84.633l-4.3 2.934-1.1-.667c-1.6-.933-4.7-1.133-6.6-.4-2 .767-4.067 2.6-4.833 4.333-.834 1.767-.834 5.234 0 7 .7 1.567 2.333 3.3 3.8 4.067.6.3 2.033.6 3.233.7 2.8.2 5.167-.733 6.867-2.733 1.366-1.6 2.266-4.4 2.033-6.334l-.167-1.366 4.3-2.9 4.3-2.9 1.534.7c2.333 1 5.8.766 8-.567 2.4-1.5 3.6-3.633 3.733-6.633.1-2.1 0-2.567-.833-4.2-2.167-4.134-7-5.7-11.134-3.634l-1.233.6-4.233-2.9-4.234-2.9-.1-2.333c-.066-2.8-.866-4.6-2.833-6.233-2.5-2.134-6.233-2.567-9.267-1.067z" fill="#000"/></svg>
